X: 20614
M: C|
L: 1/8
K: G
|:!f!\
g4 d3B | G2G>G G.B.c.d !p!|\
e2e>e g2(fe) | (e4 d).d.g.b !f!|\
g4 d3B | G2G>G G2dd |\
f2dd a2f2 | g2g>g g2z2 :|
|:\
(af).d.d "_>"b3a | gB-Bc d2g2 |\
(af).d.d b3a | gdBG d3z !p!|\
aaaa ffff | g2g>g g2z2 :|


